X:26
T:Milzinu, Sugri,zimas
R:
C:
H:
N:
A:
D:Zpoan Vtenz - "Gime, Nugalet"
O:
Z:<anamnese@laposte.net> -- http://anamnese.fr.st
M:C
L:1/4
Q:1/4=110
K:D
V:1
d c2 B A2 B d c2 B c2 A | d c2 B A2 B d c2 B c2 A |
V:2
|:[C,/c/][C,/c/][C,/c/][C,/c/][C,/c/][C,/c/][C,/c/] :|
|:[C,/c/][C,/c/][C,/c/][C,/c/][C,/c/][C,/c/][C,/c/] :|
|:[D,/d/][D,/d/][D,/d/][D,/d/][D,/d/][D,/d/][D,/d/] :|
|:[D,/d/][D,/d/][D,/d/][D,/d/][D,/d/][D,/d/][D,/d/] :|
